Flat-Remix-Dark/apps/scalable/usb-creator.svg

<svg xmlns="http://www.w3.org/2000/svg" width="384pt" height="384pt" version="1.1" viewBox="0 0 384 384"> <g> <path style="fill-rule:evenodd;fill:rgb(100.000%,100.000%,100.000%)" d="M 97.6875 271.628906 L 142.527344 271.628906 L 142.527344 357.140625 L 97.6875 357.140625 Z M 97.6875 271.628906"/> <path style="fill-rule:evenodd;fill:rgb(90.196%,90.196%,90.196%)" d="M 142.523438 271.628906 L 187.363281 271.628906 L 187.363281 357.140625 L 142.523438 357.140625 Z M 142.523438 271.628906"/> <path style="fill-rule:evenodd;fill:rgb(14.901%,35.294%,69.411%)" d="M 95.960938 23.25 L 187.71875 23.25 C 205.316406 23.25 219.578125 37.503906 219.578125 55.089844 L 219.578125 245.113281 C 219.578125 262.699219 205.316406 276.953125 187.71875 276.953125 L 95.960938 276.953125 C 78.367188 276.953125 64.101562 262.699219 64.101562 245.113281 L 64.101562 55.089844 C 64.101562 37.503906 78.367188 23.25 95.960938 23.25 Z M 95.960938 23.25"/> <path style="fill-rule:evenodd;fill:rgb(6.666%,17.647%,36.078%)" d="M 108.140625 321.574219 L 108.140625 335.804688 L 131.757812 335.804688 L 131.757812 321.574219 Z M 154.730469 321.574219 L 154.730469 335.804688 L 178.511719 335.804688 L 178.511719 321.574219 Z M 154.730469 321.574219"/> <path style="fill:rgb(90.196%,90.196%,90.196%)" d="M 164.753906 116.707031 L 164.753906 92.476562 L 189.054688 92.476562 L 189.054688 116.707031 Z M 164.753906 116.707031"/> <path style="fill:rgb(90.196%,90.196%,90.196%)" d="M 142.453125 208.234375 C 151.574219 208.234375 158.964844 215.617188 158.964844 224.726562 C 158.964844 233.832031 151.574219 241.21875 142.453125 241.214844 C 133.335938 241.214844 125.941406 233.832031 125.941406 224.726562 C 125.941406 215.617188 133.335938 208.234375 142.453125 208.234375 Z M 142.453125 208.234375"/> <path style="fill:rgb(90.196%,90.196%,90.196%)" d="M 111.496094 113.785156 C 119.574219 113.785156 126.121094 120.324219 126.121094 128.390625 C 126.121094 136.457031 119.574219 142.996094 111.496094 142.992188 C 103.421875 142.992188 96.875 136.457031 96.875 128.390625 C 96.875 120.324219 103.421875 113.785156 111.496094 113.785156 Z M 111.496094 113.785156"/> <path style="fill-rule:evenodd;fill:rgb(90.196%,90.196%,90.196%)" d="M 129.445312 77.851562 C 129.445312 77.851562 142.464844 48.445312 142.785156 48.890625 C 143.105469 49.332031 155.699219 77.851562 155.699219 77.851562 Z M 129.445312 77.851562"/> <path style="fill:none;stroke-width:6.014547;stroke:rgb(90.196%,90.196%,90.196%);stroke-miterlimit:2.012602" d="M 189.869792 266.963542 C 186.901042 239.265625 146.697917 225.552083 146.588542 209.46875 C 146.515625 198.59375 147.015625 193.833333 146.921875 180" transform="matrix(0.75,0,0,0.75,0,0)"/> <path style="fill:none;stroke-width:6.014547;stroke:rgb(90.196%,90.196%,90.196%);stroke-miterlimit:2.012602" d="M 189.875 237.489583 C 189.875 210.21875 219.84375 203.796875 234.697917 183.625 C 236.963542 180.208333 235.489583 149.380208 235.489583 147.411458" transform="matrix(0.75,0,0,0.75,0,0)"/> <path style="fill:none;stroke-width:6.014547;stroke:rgb(90.196%,90.196%,90.196%);stroke-miterlimit:2.012602" d="M 189.791667 300.020833 L 189.791667 95.432292" transform="matrix(0.75,0,0,0.75,0,0)"/> <path style="fill-rule:evenodd;fill:rgb(12.549%,65.882%,68.627%)" d="M 319.894531 280.339844 C 319.8125 236.03125 284.054688 200.171875 240.011719 200.234375 C 195.96875 200.296875 160.308594 236.257812 160.351562 280.566406 C 160.394531 324.878906 196.117188 360.769531 240.160156 360.75 C 284.203125 360.726562 319.894531 324.800781 319.894531 280.492188"/> <path style="fill-rule:evenodd;fill:rgb(100.000%,100.000%,100.000%)" d="M 233.34375 241.664062 L 233.34375 273.53125 L 201.519531 273.53125 L 201.519531 287.730469 L 233.34375 287.730469 L 233.34375 319.722656 L 247.785156 319.722656 L 247.785156 287.730469 L 279.519531 287.730469 L 279.519531 273.53125 L 247.785156 273.53125 L 247.785156 241.664062 Z M 233.34375 241.664062"/> </g> </svg>

<svg xmlns="http://www.w3.org/2000/svg" width="384pt" height="384pt" version="1.1" viewBox="0 0 384 384">
 <path style="fill-rule:evenodd;opacity:0.3" d="m 146.12106,32.554689 c -17.59375,0 -31.85889,14.25391 -31.85889,31.83985 V 254.417 c 0,17.58593 14.26514,31.83984 31.85889,31.83984 h 1.72705 v 80.18847 h 44.83594 0.003 44.83594 v -80.18847 h 0.35595 c 17.59767,0 31.85889,-14.25391 31.85889,-31.83984 V 64.394539 c 0,-17.58594 -14.26122,-31.83985 -31.85889,-31.83985 z"/>
 <g transform="translate(50.160159,1.80469)">
  <g>
   <path d="m 97.6875,271.62891 h 44.83984 v 85.51171 H 97.6875 Z m 0,0" style="fill:#ffffff;fill-rule:evenodd"/>
   <path d="m 142.52344,271.62891 h 44.83984 v 85.51171 h -44.83984 z m 0,0" style="fill:#e6e6e6;fill-rule:evenodd"/>
   <path d="m 95.960938,23.25 h 91.757812 c 17.59766,0 31.85937,14.253906 31.85937,31.839844 V 245.11328 c 0,17.58594 -14.26171,31.83984 -31.85937,31.83984 H 95.960938 c -17.59375,0 -31.859376,-14.2539 -31.859376,-31.83984 V 55.089844 C 64.101562,37.503906 78.367188,23.25 95.960938,23.25 Z m 0,0" style="fill:#2359b0;fill-rule:evenodd"/>
  </g>
  <path style="fill:#0f2b5c;fill-rule:evenodd" d="m 108.14063,321.57422 v 14.23047 h 23.61718 v -14.23047 z m 46.58984,0 v 14.23047 h 23.78125 v -14.23047 z m 0,0"/>
  <path style="fill:#e6e6e6" d="M 164.75391,116.70703 V 92.476562 h 24.30078 v 24.230468 z m 0,0"/>
  <path style="fill:#e6e6e6" d="m 142.45312,208.23437 c 9.1211,0 16.51172,7.38282 16.51172,16.49219 0,9.10547 -7.39062,16.49219 -16.51172,16.48828 -9.11718,0 -16.51171,-7.38281 -16.51171,-16.48828 0,-9.10937 7.39453,-16.49219 16.51171,-16.49219 z m 0,0"/>
  <path style="fill:#e6e6e6" d="m 111.49609,113.78516 c 8.07813,0 14.625,6.53906 14.625,14.60546 0,8.06641 -6.54687,14.60547 -14.625,14.60157 -8.07421,0 -14.62109,-6.53516 -14.62109,-14.60157 0,-8.0664 6.54688,-14.60546 14.62109,-14.60546 z m 0,0"/>
  <path style="fill:#e6e6e6;fill-rule:evenodd" d="m 129.44531,77.851562 c 0,0 13.01953,-29.40625 13.33985,-28.960937 0.32031,0.441406 12.91406,28.960937 12.91406,28.960937 z m 0,0"/>
  <path style="fill:none;stroke:#e6e6e6;stroke-width:4.51091003;stroke-miterlimit:2.01260209" d="m 142.40234,200.22266 c -2.22656,-20.77345 -32.3789,-31.0586 -32.46093,-43.1211 -0.0547,-8.15625 0.3203,-11.72656 0.24999,-22.10156"/>
  <path style="fill:none;stroke:#e6e6e6;stroke-width:4.51091003;stroke-miterlimit:2.01260209" d="m 142.40625,178.11718 c 0,-20.45312 22.47656,-25.26953 33.61719,-40.39843 1.69922,-2.5625 0.59374,-25.68359 0.59374,-27.16016"/>
  <path style="fill:none;stroke:#e6e6e6;stroke-width:4.51091003;stroke-miterlimit:2.01260209" d="M 142.34375,225.01562 V 71.574219"/>
 </g>
 <path style="opacity:0.3;fill-rule:evenodd" d="m 369.00001,293.08984 c -0.082,-44.30859 -35.83985,-80.16797 -79.88281,-80.10547 -44.04297,0.0625 -79.70313,36.02344 -79.66016,80.33204 0.043,44.3125 35.76563,80.20311 79.8086,80.18358 44.04296,-0.0234 79.73437,-35.94921 79.73437,-80.2578"/>
 <g transform="translate(49.105479,8.249992)">
  <path style="fill:#1ea6ae;fill-rule:evenodd" d="m 319.89453,280.33984 c -0.082,-44.30859 -35.83984,-80.16797 -79.88281,-80.10547 -44.04297,0.0625 -79.70313,36.02344 -79.66016,80.33204 0.043,44.3125 35.76563,80.20312 79.8086,80.18359 44.04296,-0.0234 79.73437,-35.94922 79.73437,-80.25781"/>
  <path style="fill:#ffffff;fill-rule:evenodd" d="m 233.34375,241.66406 v 31.86719 h -31.82422 v 14.19922 h 31.82422 v 31.99219 h 14.44141 v -31.99219 h 31.73437 v -14.19922 h -31.73437 v -31.86719 z m 0,0"/>
 </g>
</svg>
